X:1
T:The False Lady
M:4/4
L:1/4
K:C
 E| A A A B| A G E z| A A c d| e3 z| A/2A/2 A c d| e e e e/2e/2| d c A G|\
 c2 B B/2B/2| A G E G| A3||
